public/library/usdg-icon-dark.svg

<svg width="194" height="195" viewBox="0 0 194 195" fill="none" xmlns="http://www.w3.org/2000/svg">
<circle cx="96.8933" cy="97.2009" r="96.8386" fill="#314012"/>
<path fill-rule="evenodd" clip-rule="evenodd" d="M168.887 102.452C166.099 139.698 134.987 169.051 97.0161 169.051C57.2109 169.051 24.9424 136.793 24.9424 97.0002C24.9424 57.2075 57.2109 24.9492 97.0161 24.9492C134.924 24.9492 165.997 54.2062 168.873 91.3651H134.414C141.936 74.7437 142.391 59.6421 134.165 52.7419C122.017 42.5517 95.537 54.1062 75.0201 78.5496C54.5032 102.993 47.7189 131.069 59.8668 141.259C72.0148 151.449 98.4949 139.895 119.012 115.451C122.588 111.191 125.747 106.82 128.461 102.452H168.887Z" fill="#C7E36C"/>
<path d="M102.43 102.452H131.251L120.121 117.025L102.43 109.924V102.452Z" fill="#C7E36C"/>
</svg>

<svg xmlns="http://www.w3.org/2000/svg" width="194" height="195" fill="none" viewBox="0 0 194 195"><circle cx="96.893" cy="97.201" r="96.839" fill="#314012"/><path fill="#c7e36c" fill-rule="evenodd" d="M168.887 102.452c-2.788 37.246-33.9 66.599-71.87 66.599-39.806 0-72.075-32.258-72.075-72.05 0-39.793 32.269-72.052 72.074-72.052 37.908 0 68.981 29.257 71.857 66.416h-34.459c7.522-16.621 7.977-31.723-.249-38.623-12.148-10.19-38.628 1.364-59.145 25.808s-27.301 52.519-15.153 62.709 38.628-1.364 59.145-25.808a113 113 0 0 0 9.449-12.999z" clip-rule="evenodd"/><path fill="#c7e36c" d="M102.43 102.452h28.821l-11.13 14.573-17.691-7.101z"/></svg>
